pro/src/icons/stroke-teacher.svg

<svg width="48" height="48" viewBox="0 0 48 48" fill="none" xmlns="http://www.w3.org/2000/svg">
<g id="icon">
<path id="Union" fill-rule="evenodd" clip-rule="evenodd" d="M18 5C16.3477 5 15 6.34772 15 8V9H6.73C4.11772 9 2 11.1177 2 13.73V28C2 29.3019 2.83678 30.4148 4 30.8282V38.58C4 41.0223 5.97772 43 8.42 43H31.64C32.1923 43 32.64 42.5523 32.64 42C32.64 41.4477 32.1923 41 31.64 41H8.42C7.08228 41 6 39.9177 6 38.58V31H10H11H12V35C12 35.5523 12.4477 36 13 36C13.5523 36 14 35.5523 14 35V31H16C16.5523 31 17 30.5523 17 30C17 29.4477 16.5523 29 16 29H14V24C14 23.4477 13.5523 23 13 23C12.4477 23 12 23.4477 12 24V29H11H10H5C4.45228 29 4 28.5477 4 28V13.73C4 12.2223 5.22228 11 6.73 11H16H25.03H25.51C26.0623 11 26.51 10.5523 26.51 10C26.51 9.44772 26.0623 9 25.51 9H25.03H17V8C17 7.45228 17.4523 7 18 7H30C30.5477 7 31 7.45228 31 8V9H30.5098C29.9575 9 29.5098 9.44772 29.5098 10C29.5098 10.5523 29.9575 11 30.5098 11H32H42.1998C43.1975 11 43.9998 11.8023 43.9998 12.8V28C43.9998 28.5477 43.5475 29 42.9998 29H36V24C36 23.4477 35.5523 23 35 23C34.4477 23 34 23.4477 34 24V29H21C20.4477 29 20 29.4477 20 30C20 30.5523 20.4477 31 21 31H34V35C34 35.5523 34.4477 36 35 36C35.5523 36 36 35.5523 36 35V31H42V38.58C42 39.9177 40.9177 41 39.58 41H38.02C37.4677 41 37.02 41.4477 37.02 42C37.02 42.5523 37.4677 43 38.02 43H39.58C42.0223 43 44 41.0223 44 38.58V30.8281C45.1631 30.4146 45.9998 29.3018 45.9998 28V12.8C45.9998 10.6977 44.3021 9 42.1998 9H33V8C33 6.34772 31.6523 5 30 5H18Z" fill="currentColor"/>
</g>
</svg>

<svg xmlns="http://www.w3.org/2000/svg" width="48" height="48" fill="none"><g id="icon"><path id="Union" fill="currentColor" fill-rule="evenodd" d="M18 5c-1.652 0-3 1.348-3 3v1H6.73A4.73 4.73 0 0 0 2 13.73V28c0 1.302.837 2.415 2 2.828v7.752A4.42 4.42 0 0 0 8.42 43h23.22a1 1 0 1 0 0-2H8.42A2.42 2.42 0 0 1 6 38.58V31h6v4a1 1 0 1 0 2 0v-4h2a1 1 0 1 0 0-2h-2v-5a1 1 0 1 0-2 0v5H5c-.548 0-1-.452-1-1V13.73A2.73 2.73 0 0 1 6.73 11h18.78a1 1 0 1 0 0-2H17V8c0-.548.452-1 1-1h12c.548 0 1 .452 1 1v1h-.49a1 1 0 1 0 0 2H42.2c.997 0 1.8.802 1.8 1.8V28c0 .548-.453 1-1 1h-7v-5a1 1 0 1 0-2 0v5H21a1 1 0 1 0 0 2h13v4a1 1 0 1 0 2 0v-4h6v7.58A2.42 2.42 0 0 1 39.58 41h-1.56a1 1 0 1 0 0 2h1.56A4.42 4.42 0 0 0 44 38.58v-7.752A3.01 3.01 0 0 0 46 28V12.8c0-2.102-1.698-3.8-3.8-3.8H33V8c0-1.652-1.348-3-3-3z" clip-rule="evenodd"/></g></svg>
